rospo-icon-theme-classic-common/24x24/places/folder-yellow-development.svg

<svg height="24" width="24" xmlns="http://www.w3.org/2000/svg"><rect height="12" opacity=".2" rx="1" width="20" x="2" y="9.5"/><path d="m2 17c0 .554.446 1 1 1h18c .554 0 1-.446 1-1v-11c0-.554-.446-1-1-1h-10v-1c0-.554-.446-1-1-1h-7c-.554 0-1 .446-1 1" fill="#b58f1b"/><rect height="12" opacity=".2" rx="1" width="20" x="2" y="8.5"/><rect fill="#e4e4e4" height="8" rx="1" width="16" x="4" y="7"/><rect fill="#e2b322" height="12" rx="1" width="20" x="2" y="9"/><path d="m3 3c-.554 0-1 .446-1 1v .5c0-.554.446-1 1-1h7c .554 0 1 .446 1 1v-.5c0-.554-.446-1-1-1zm8 2v .5h10c .554 0 1 .446 1 1v-.5c0-.554-.446-1-1-1z" fill="#fff" opacity=".1"/><path d="m11 11v1.174a3 3 0 0 0 -.291.121l-.8303-.83-1.4141 1.414.8301.83a3 3 0 0 0 -.1191.291h-1.1756v2h1.1736a3 3 0 0 0  .1211.291l-.8301.83 1.4141 1.414.8303-.83a3 3 0 0 0  .291.119v1.176h2v-1.174a3 3 0 0 0  .291-.121l.83.83 1.414-1.414-.83-.83a3 3 0 0 0  .119-.291h1.176v-2h-1.174a3 3 0 0 0 -.121-.291l.83-.83-1.414-1.414-.83.83a3 3 0 0 0 -.291-.119v-1.176zm1 2a2 2 0 0 1 2 2 2 2 0 0 1 -2 2 2 2 0 0 1 -2-2 2 2 0 0 1 2-2z" fill="#4f3e0c"/></svg>

<svg xmlns="http://www.w3.org/2000/svg" width="24" height="24" version="1">
 <rect style="opacity:0.2" width="20" height="12" x="2" y="9.5" rx="1" ry="1"/>
 <path style="fill:#b58f1b" d="M 2,17 C 2,17.554 2.446,18 3,18 H 21 C 21.554,18 22,17.554 22,17 V 6 C 22,5.446 21.554,5 21,5 H 11 V 4 C 11,3.446 10.554,3 10,3 H 3 C 2.446,3 2,3.446 2,4"/>
 <rect style="opacity:0.2" width="20" height="12" x="2" y="8.5" rx="1" ry="1"/>
 <rect style="fill:#dcdcdc" width="16" height="8" x="4" y="7" rx="1" ry="1"/>
 <rect style="fill:#e2b322" width="20" height="12" x="2" y="9" rx="1" ry="1"/>
 <path style="opacity:0.1;fill:#ffffff" d="M 3,3 C 2.446,3 2,3.446 2,4 V 4.5 C 2,3.946 2.446,3.5 3,3.5 H 10 C 10.554,3.5 11,3.946 11,4.5 V 4 C 11,3.446 10.554,3 10,3 Z M 11,5 V 5.5 H 21 C 21.554,5.5 22,5.946 22,6.5 V 6 C 22,5.446 21.554,5 21,5 Z"/>
 <path style="fill:#4f3e0c" d="M 11,11 V 12.174 A 3,3 0 0 0 10.709,12.295 L 9.8787,11.465 8.4646,12.879 9.2947,13.709 A 3,3 0 0 0 9.1756,14 H 8 V 16 H 9.1736 A 3,3 0 0 0 9.2947,16.291 L 8.4646,17.121 9.8787,18.535 10.709,17.705 A 3,3 0 0 0 11,17.824 V 19 H 13 V 17.826 A 3,3 0 0 0 13.291,17.705 L 14.121,18.535 15.535,17.121 14.705,16.291 A 3,3 0 0 0 14.824,16 H 16 V 14 H 14.826 A 3,3 0 0 0 14.705,13.709 L 15.535,12.879 14.121,11.465 13.291,12.295 A 3,3 0 0 0 13,12.176 V 11 Z M 12,13 A 2,2 0 0 1 14,15 2,2 0 0 1 12,17 2,2 0 0 1 10,15 2,2 0 0 1 12,13 Z"/>
</svg>
